src/assets/img/providers-white/thunderkick.svg

<svg width="132" height="24" viewBox="0 0 132 24" fill="none" xmlns="http://www.w3.org/2000/svg">
<path d="M9.9066 7.71238L1.41028 8.00591C1.33721 8.00823 1.26541 8.02553 1.19931 8.05674C1.13321 8.08796 1.07423 8.13241 1.02602 8.18736C0.934386 8.28227 0.881151 8.40775 0.876587 8.5396L1.03136 10.8558C1.03821 10.9927 1.09745 11.1217 1.1968 11.216C1.29615 11.3104 1.42801 11.363 1.56505 11.3628H3.87592L4.40961 22.2394C4.41264 22.3115 4.43029 22.3823 4.46148 22.4475C4.49267 22.5126 4.53675 22.5707 4.59106 22.6183C4.64477 22.6675 4.708 22.7053 4.77684 22.7291C4.84568 22.753 4.91867 22.7625 4.99133 22.7571L7.60107 22.581C7.74261 22.581 7.87836 22.5247 7.97844 22.4246C8.07853 22.3246 8.13476 22.1888 8.13476 22.0473L7.81454 11.2988L10.1041 11.2721C10.1776 11.2712 10.2502 11.2551 10.3173 11.2247C10.3843 11.1944 10.4444 11.1506 10.4937 11.096C10.5445 11.0421 10.5836 10.9782 10.6084 10.9083C10.6332 10.8385 10.6432 10.7643 10.6378 10.6904L10.483 8.21938C10.4796 8.14783 10.4619 8.07768 10.4309 8.01312C10.3999 7.94856 10.3562 7.8909 10.3024 7.84359C10.2486 7.79628 10.1858 7.76028 10.1178 7.73774C10.0498 7.71519 9.978 7.70657 9.9066 7.71238ZM19.8119 8.42219L17.2395 8.28343C17.0979 8.28343 16.9622 8.33966 16.8621 8.43974C16.762 8.53983 16.7058 8.67557 16.7058 8.81712L16.6684 14.4902L15.5477 14.7304L15.2648 8.2941C15.2648 8.15256 15.2086 8.01681 15.1085 7.91673C15.0084 7.81664 14.8727 7.76041 14.7312 7.76041L12.1961 7.82445C12.0546 7.82445 11.9188 7.88068 11.8188 7.98077C11.7187 8.08085 11.6624 8.2166 11.6624 8.35814L12.0841 22.6877C12.0841 22.8292 12.1403 22.965 12.2404 23.0651C12.3405 23.1652 12.4762 23.2214 12.6177 23.2214L15.1528 23.1573C15.2252 23.1585 15.297 23.1449 15.364 23.1174C15.431 23.0898 15.4917 23.049 15.5424 22.9972C15.5941 22.9466 15.6349 22.8859 15.6625 22.8189C15.69 22.7519 15.7036 22.68 15.7025 22.6076L15.4249 17.8044L16.4176 17.8738L16.5937 22.1433C16.5897 22.2167 16.6009 22.2902 16.6266 22.3591C16.6524 22.428 16.692 22.4908 16.7432 22.5436C16.7929 22.5973 16.8532 22.6401 16.9202 22.6695C16.9872 22.6989 17.0596 22.7141 17.1327 22.7144L19.8012 22.8958H19.8332C19.9748 22.8958 20.1105 22.8396 20.2106 22.7395C20.3107 22.6394 20.3669 22.5037 20.3669 22.3621V8.9452C20.3713 8.87247 20.3607 8.79961 20.3359 8.73112C20.311 8.66263 20.2724 8.59995 20.2224 8.54695C20.1724 8.49395 20.1121 8.45175 20.0451 8.42295C19.9782 8.39415 19.9061 8.37936 19.8332 8.37949L19.8119 8.42219ZM29.3489 7.22139L27.0273 7.3975C26.8914 7.40567 26.7638 7.46549 26.6705 7.5647C26.5772 7.66392 26.5254 7.79503 26.5257 7.93119C26.5257 7.93119 26.5257 16.8865 26.5257 18.0713C26.5257 18.7651 26.6004 19.9339 25.8372 19.9659C25.3035 19.9659 25.1327 19.2241 25.1221 18.1407C25.1221 16.9239 25.2128 8.59297 25.2128 8.53426C25.2133 8.40066 25.1638 8.27171 25.0738 8.1729C24.9839 8.07409 24.8602 8.0126 24.7271 8.00057L22.0587 7.71772C21.9834 7.70862 21.9071 7.71566 21.8348 7.73837C21.7624 7.76109 21.6958 7.79895 21.6392 7.84945C21.5826 7.89994 21.5375 7.96191 21.5068 8.03122C21.476 8.10053 21.4604 8.17559 21.461 8.25141C21.461 8.25141 21.5624 18.7437 21.5677 19.112C21.5769 19.625 21.6896 20.1309 21.8991 20.5993C22.1086 21.0678 22.4106 21.489 22.7869 21.8379C23.1632 22.1868 23.606 22.4561 24.0889 22.6296C24.5718 22.8031 25.0848 22.8774 25.5971 22.8478C28.9059 22.7571 29.5037 20.7878 29.7065 18.4876C29.7919 17.5323 29.9466 8.7851 29.9573 7.81378C29.9585 7.73881 29.944 7.66442 29.9146 7.59545C29.8851 7.52648 29.8415 7.46449 29.7865 7.41351C29.7335 7.34968 29.6664 7.29907 29.5904 7.26572C29.5144 7.23237 29.4317 7.21719 29.3489 7.22139ZM39.6331 7.79243L37.2048 7.90984C37.1326 7.91288 37.0619 7.93053 36.9967 7.96172C36.9316 7.99291 36.8735 8.03699 36.8259 8.0913C36.731 8.20254 36.6814 8.34545 36.6871 8.49157L37.0874 15.2107L34.5737 8.27275C34.5334 8.15857 34.4554 8.0615 34.3526 7.99749C34.2498 7.93348 34.1283 7.90634 34.008 7.92052L31.5744 8.18736C31.4413 8.19939 31.3176 8.26088 31.2277 8.35969C31.1378 8.45851 31.0882 8.58745 31.0887 8.72105L31.489 21.9672C31.489 22.1088 31.5452 22.2445 31.6453 22.3446C31.7454 22.4447 31.8811 22.5009 32.0227 22.5009L34.4616 22.6824C34.5389 22.6888 34.6167 22.6782 34.6895 22.6515C34.7623 22.6248 34.8284 22.5825 34.8832 22.5276C34.9393 22.4743 34.9832 22.4095 35.0118 22.3377C35.0403 22.2658 35.0529 22.1885 35.0487 22.1113L34.6431 16.3315L36.7512 22.3515C36.7863 22.4523 36.8508 22.5402 36.9364 22.604C37.0221 22.6677 37.1248 22.7043 37.2315 22.709H39.8359C39.9677 22.7045 40.0932 22.6512 40.1881 22.5596C40.2956 22.454 40.357 22.3101 40.3589 22.1593L40.2041 8.3368C40.2039 8.26362 40.1886 8.19127 40.1592 8.12425C40.1298 8.05723 40.087 7.99696 40.0333 7.9472C39.9251 7.84553 39.7815 7.79002 39.6331 7.79243ZM42.8886 7.50958H42.3549C42.2133 7.50958 42.0776 7.56581 41.9775 7.66589C41.8774 7.76598 41.8212 7.90172 41.8212 8.04327L41.3836 21.8071C41.3833 21.9433 41.4351 22.0744 41.5284 22.1736C41.6217 22.2728 41.7493 22.3326 41.8852 22.3408C41.8852 22.3408 42.2055 22.3675 42.6911 22.3675C44.3989 22.3675 48.4816 22.0579 49.4209 19.1653C50.2055 16.7798 50.0774 13.5189 49.8799 11.9659C49.5117 8.98256 47.2168 7.50958 42.8886 7.50958ZM46.523 16.5823C46.2348 18.9092 45.5037 19.0533 44.7031 19.3308L45.0767 10.685C45.2923 10.7102 45.4997 10.7826 45.6842 10.8969C45.8686 11.0113 46.0257 11.1649 46.1441 11.3468C46.8165 12.2167 46.8059 14.3034 46.523 16.577V16.5823ZM57.8639 19.9499L54.6618 20.2007L54.5123 17.2227L56.5777 17.1053C56.7113 17.1059 56.8402 17.0563 56.9391 16.9663C57.0379 16.8764 57.0994 16.7527 57.1114 16.6197L57.3035 14.7891C57.3129 14.7109 57.3048 14.6315 57.2799 14.5568C57.255 14.4821 57.2139 14.4138 57.1594 14.3568C57.1055 14.2983 57.0392 14.2526 56.9653 14.2231C56.8914 14.1935 56.8119 14.1809 56.7325 14.186L54.491 14.3034V11.0586H57.8052C57.9467 11.0586 58.0825 11.0024 58.1826 10.9023C58.2826 10.8022 58.3389 10.6665 58.3389 10.5249C58.3415 10.484 58.3415 10.443 58.3389 10.4022L58.1521 8.45955C58.1411 8.32079 58.0764 8.1918 57.9717 8.10008C57.8671 8.00836 57.7307 7.96116 57.5917 7.96855L51.529 8.11798C51.3875 8.11798 51.2517 8.17421 51.1516 8.2743C51.0515 8.37438 50.9953 8.51013 50.9953 8.65167L51.1874 22.2661C51.1874 22.4076 51.2437 22.5434 51.3438 22.6435C51.4438 22.7435 51.5796 22.7998 51.7211 22.7998H57.8532C57.9948 22.7998 58.1305 22.7435 58.2306 22.6435C58.3307 22.5434 58.3869 22.4076 58.3869 22.2661L58.4349 20.4889C58.4377 20.4121 58.4239 20.3357 58.3944 20.2648C58.3649 20.1939 58.3205 20.1301 58.2642 20.078C58.21 20.0297 58.1466 19.993 58.0778 19.97C58.0089 19.9471 57.9362 19.9384 57.8639 19.9445V19.9499ZM67.7798 11.9445C67.6464 10.0339 66.9846 7.4989 62.8272 7.4989C61.7814 7.51593 60.7396 7.63208 59.7158 7.8458C59.5915 7.86854 59.4792 7.93465 59.3991 8.03239C59.319 8.13012 59.2761 8.25312 59.2782 8.37949L59.4703 21.7217C59.47 21.8579 59.5219 21.989 59.6151 22.0882C59.7084 22.1874 59.836 22.2472 59.972 22.2554L61.8826 22.4048C61.9573 22.4111 62.0326 22.4014 62.1034 22.3766C62.1742 22.3518 62.239 22.3123 62.2935 22.2607C62.3495 22.2102 62.3941 22.1485 62.4244 22.0795C62.4548 22.0105 62.4702 21.9359 62.4696 21.8605V17.591L63.4409 17.5376L64.5083 22.138C64.5299 22.2633 64.5956 22.3768 64.6934 22.458C64.7912 22.5392 64.9149 22.5828 65.042 22.581H65.0847L66.9953 22.4315C67.0716 22.4276 67.1462 22.4073 67.214 22.3721C67.2818 22.3368 67.3413 22.2874 67.3883 22.2272C67.4354 22.167 67.4689 22.0973 67.4868 22.023C67.5046 21.9487 67.5063 21.8714 67.4916 21.7964L66.1361 16.6784C67.0914 15.9259 67.972 14.613 67.7798 11.9605V11.9445ZM64.3322 13.8231C63.8143 14.2778 63.1533 14.5366 62.4643 14.5543V10.6423C62.6395 10.6036 62.8185 10.5839 62.998 10.5836C63.7291 10.5836 64.599 10.9092 64.7378 12.4729C64.774 12.7164 64.7565 12.9649 64.6864 13.201C64.6163 13.437 64.4954 13.6548 64.3322 13.8391V13.8231ZM75.0593 15.8618C76.8746 13.7309 77.7979 10.982 77.6371 8.18736C77.6374 8.11305 77.6221 8.03949 77.5924 7.97139C77.5626 7.9033 77.5189 7.84218 77.4642 7.79194C77.4094 7.7417 77.3448 7.70345 77.2744 7.67964C77.204 7.65583 77.1294 7.64699 77.0553 7.65367L74.7872 7.80311C74.7129 7.80281 74.6393 7.81803 74.5712 7.8478C74.5031 7.87757 74.442 7.92124 74.3917 7.976C74.3415 8.03076 74.3032 8.09542 74.2794 8.16582C74.2556 8.23622 74.2468 8.31081 74.2535 8.38483C74.3335 9.58029 73.5437 12.1207 72.4069 13.7217L72.5723 8.52892C72.5742 8.45563 72.561 8.38273 72.5334 8.31479C72.5059 8.24684 72.4646 8.18529 72.4122 8.13399C72.3609 8.08161 72.2994 8.04036 72.2315 8.01281C72.1635 7.98527 72.0906 7.97202 72.0173 7.97389L69.0927 8.01658C69.0208 8.01686 68.9497 8.03165 68.8837 8.06008C68.8177 8.08851 68.758 8.12999 68.7084 8.18203C68.6586 8.2336 68.6198 8.29468 68.5941 8.36161C68.5684 8.42855 68.5565 8.49997 68.559 8.57162L68.8792 22.4155C68.8806 22.4921 68.8985 22.5675 68.9317 22.6366C68.9648 22.7056 69.0125 22.7668 69.0714 22.8158C69.1291 22.8666 69.1971 22.9044 69.2708 22.9265C69.3445 22.9486 69.4221 22.9546 69.4983 22.9439L71.7772 22.6397C71.9083 22.6252 72.0294 22.5626 72.1171 22.464C72.2048 22.3655 72.2529 22.2379 72.2521 22.106L72.2895 18.0659C72.7538 18.3435 74.1094 20.3074 74.3389 22.2501C74.3521 22.3822 74.4142 22.5046 74.5129 22.5934C74.6115 22.6822 74.7398 22.7311 74.8726 22.7304H77.2741H77.3062C77.4402 22.7215 77.566 22.6625 77.6584 22.5649C77.7098 22.5132 77.7501 22.4514 77.7767 22.3835C77.8033 22.3156 77.8158 22.2429 77.8132 22.17C77.8025 21.6523 76.986 17.4148 75.0593 15.8618ZM81.8585 7.38683L79.2595 7.72305C79.1283 7.73756 79.0072 7.80014 78.9195 7.89869C78.8318 7.99725 78.7837 8.12481 78.7845 8.25674V21.7644C78.7839 21.8398 78.7993 21.9144 78.8297 21.9834C78.86 22.0524 78.9047 22.1142 78.9606 22.1647C79.0133 22.2142 79.0754 22.2525 79.1433 22.2773C79.2112 22.302 79.2834 22.3127 79.3555 22.3088L82.1841 22.1006C82.321 22.0938 82.4499 22.0345 82.5443 21.9352C82.6387 21.8358 82.6913 21.704 82.6911 21.567L82.4883 7.93653C82.4894 7.85811 82.4733 7.78041 82.441 7.70894C82.4087 7.63748 82.361 7.57401 82.3014 7.52306C82.2418 7.4721 82.1717 7.43491 82.0961 7.41413C82.0204 7.39336 81.9412 7.3895 81.8639 7.40284L81.8585 7.38683ZM87.3876 7.78176C86.5977 7.83513 84.0146 8.31545 83.8012 12.1046C83.8012 12.5903 83.7478 13.0493 83.7211 13.4869C83.5663 16.0753 83.4543 17.9485 83.7852 19.571C83.988 20.5423 84.7938 22.7731 88.0013 22.7731C88.1988 22.7731 88.4069 22.7731 88.615 22.7464C89.9546 22.6343 90.9473 22.2127 91.561 21.4709C92.4416 20.4035 92.3242 19.0853 92.2601 18.3648V18.2207C92.2561 18.1506 92.2382 18.082 92.2075 18.0188C92.1768 17.9556 92.134 17.899 92.0814 17.8524C92.0289 17.8058 91.9676 17.77 91.9012 17.7472C91.8348 17.7243 91.7645 17.7147 91.6944 17.7191L89.6718 17.8098C89.5943 17.8125 89.5184 17.832 89.4493 17.8671C89.3801 17.9021 89.3195 17.9517 89.2715 18.0126C89.2238 18.073 89.1888 18.1424 89.1686 18.2167C89.1484 18.291 89.1435 18.3686 89.1541 18.4449C89.2508 18.9807 89.1584 19.5334 88.8926 20.0086C88.8142 20.0984 88.7161 20.1688 88.6059 20.2142C88.4956 20.2596 88.3764 20.2787 88.2575 20.2701H88.2308C88.1039 20.2777 87.9769 20.2573 87.8588 20.2102C87.7408 20.1632 87.6345 20.0907 87.5477 19.9979C87.2541 19.6884 86.9232 18.9305 87.014 17.0733C87.014 16.641 87.0567 16.1393 87.078 15.6056C87.1314 14.2181 87.1954 12.6383 87.3235 11.651V11.635C87.4196 10.8825 87.5637 10.5676 88.1934 10.5356C88.3587 10.5046 88.529 10.5131 88.6904 10.5604C88.8517 10.6077 88.9996 10.6925 89.122 10.8078C89.2808 11.0543 89.3381 11.3526 89.2822 11.6403C89.266 11.7187 89.2678 11.7996 89.2872 11.8772C89.3066 11.9548 89.3431 12.0271 89.3942 12.0886C89.4439 12.1515 89.5072 12.2024 89.5792 12.2375C89.6513 12.2726 89.7303 12.2911 89.8105 12.2914L92.2495 12.3235C92.391 12.3235 92.5268 12.2672 92.6268 12.1671C92.7269 12.0671 92.7832 11.9313 92.7832 11.7898C92.7827 10.7836 92.4014 9.81501 91.7158 9.07862C90.7711 8.09664 89.3088 7.65367 87.3876 7.78176ZM103.596 21.5936C103.558 21.4335 102.528 17.3241 100.367 15.3495C101.434 14.3621 103.569 12.4088 102.838 7.96855C102.818 7.82949 102.744 7.70387 102.632 7.61895C102.52 7.53403 102.379 7.49664 102.24 7.51491L99.4222 7.82979C99.3486 7.8375 99.2773 7.86046 99.213 7.89721C99.1487 7.93397 99.0927 7.98371 99.0487 8.04327C99.0039 8.10188 98.9718 8.16914 98.9544 8.24078C98.9369 8.31243 98.9345 8.38692 98.9473 8.45955C98.9473 8.50224 99.529 11.7097 97.3462 13.6363L97.3996 8.16602C97.401 8.08845 97.3855 8.0115 97.3542 7.94052C97.3228 7.86955 97.2764 7.80627 97.2181 7.75507C97.1608 7.70327 97.093 7.66451 97.0193 7.64147C96.9456 7.61844 96.8677 7.61168 96.7912 7.62165L93.9733 7.93653C93.8402 7.94855 93.7165 8.01005 93.6266 8.10886C93.5367 8.20767 93.4871 8.33662 93.4876 8.47022L93.8185 22.1647C93.82 22.24 93.8374 22.3141 93.8696 22.3821C93.9018 22.4502 93.9481 22.5107 94.0053 22.5596C94.1094 22.6517 94.2454 22.6996 94.3842 22.693H94.4269L96.8072 22.4262C96.9402 22.4142 97.0639 22.3527 97.1539 22.2539C97.2438 22.155 97.2934 22.0261 97.2928 21.8925L97.4903 17.623C98.6139 18.8774 99.3789 20.4112 99.7051 22.0633C99.7123 22.1346 99.7338 22.2036 99.7683 22.2664C99.8028 22.3292 99.8496 22.3844 99.9059 22.4287C99.9621 22.4731 100.027 22.5056 100.096 22.5244C100.165 22.5432 100.237 22.5479 100.308 22.5383L103.121 22.2234C103.197 22.2159 103.271 22.1919 103.337 22.1533C103.404 22.1146 103.461 22.062 103.505 21.9992C103.546 21.9411 103.576 21.8753 103.591 21.8056C103.607 21.736 103.608 21.6639 103.596 21.5936Z" fill="white"/>
<path d="M129.608 16.4216L130.344 11.2822L127.265 4.83522L125.173 5.55037L122.446 2.62575L117.642 0L116.575 3.89593L115.828 1.8519L112.124 5.47031L110.048 9.07272L109.957 12.8085L108.5 12.1147L109.493 18.1454L111.75 22.0147L117.087 23.8399L121.448 24L128.962 21.2622L131.123 15.9253L129.608 16.4216ZM126.357 13.5664L122.088 13.6838L121.933 18.487L121.704 21.3262L117.968 21.2889V18.567L117.664 13.8119L113.213 14.004L113.058 9.4036L119.617 9.36624L126.406 9.17412L126.523 9.78786L126.357 13.5664Z" fill="white"/>
</svg>

<svg xmlns="http://www.w3.org/2000/svg" width="132" height="24" fill="none"><path fill="#fff" d="m9.907 7.712-8.497.294a.534.534 0 0 0-.384.181.534.534 0 0 0-.15.353l.155 2.316a.533.533 0 0 0 .534.507h2.31l.535 10.876a.534.534 0 0 0 .181.38.533.533 0 0 0 .4.138l2.61-.176a.534.534 0 0 0 .534-.534L7.815 11.3l2.29-.027a.532.532 0 0 0 .389-.176.534.534 0 0 0 .144-.406l-.155-2.47a.535.535 0 0 0-.576-.508Zm9.905.71-2.573-.139a.534.534 0 0 0-.533.534l-.038 5.673-1.12.24-.283-6.436a.534.534 0 0 0-.534-.534l-2.535.064a.533.533 0 0 0-.534.534l.422 14.33a.534.534 0 0 0 .534.533l2.535-.064a.533.533 0 0 0 .39-.16.534.534 0 0 0 .16-.39l-.278-4.803.993.07.176 4.27a.534.534 0 0 0 .15.4.533.533 0 0 0 .389.17l2.668.182h.032a.534.534 0 0 0 .534-.534V8.945a.534.534 0 0 0-.534-.566l-.021.043Zm9.537-1.2-2.322.175a.534.534 0 0 0-.501.534v10.14c0 .694.074 1.863-.689 1.895-.534 0-.704-.742-.715-1.825 0-1.217.09-9.548.09-9.607a.534.534 0 0 0-.485-.533l-2.668-.283a.533.533 0 0 0-.598.533s.101 10.493.107 10.861a3.81 3.81 0 0 0 4.03 3.736c3.308-.09 3.906-2.06 4.108-4.36.086-.956.24-9.703.251-10.674a.535.535 0 0 0-.17-.4.534.534 0 0 0-.438-.193Zm10.284.57-2.428.118a.534.534 0 0 0-.38.181.582.582 0 0 0-.138.4l.4 6.72-2.513-6.938a.533.533 0 0 0-.566-.352l-2.434.266a.534.534 0 0 0-.485.534l.4 13.246a.534.534 0 0 0 .534.534l2.439.181a.534.534 0 0 0 .421-.154.535.535 0 0 0 .166-.417l-.406-5.78 2.108 6.02a.534.534 0 0 0 .48.358h2.605a.534.534 0 0 0 .352-.15.571.571 0 0 0 .17-.4l-.154-13.822a.533.533 0 0 0-.17-.39.571.571 0 0 0-.4-.155Zm3.256-.282h-.534a.534.534 0 0 0-.534.533l-.437 13.764a.533.533 0 0 0 .501.534s.32.026.806.026c1.708 0 5.79-.31 6.73-3.202.785-2.385.656-5.646.459-7.2-.368-2.982-2.663-4.455-6.991-4.455Zm3.634 9.072c-.288 2.327-1.02 2.471-1.82 2.749l.374-8.646a1.48 1.48 0 0 1 1.067.662c.672.87.662 2.956.379 5.23v.005Zm11.34 3.368-3.201.25-.15-2.977 2.066-.118a.533.533 0 0 0 .533-.485l.193-1.83a.534.534 0 0 0-.145-.433.532.532 0 0 0-.426-.171l-2.242.117V11.06h3.314a.534.534 0 0 0 .534-.534.966.966 0 0 0 0-.123l-.187-1.942a.534.534 0 0 0-.56-.491l-6.063.149a.534.534 0 0 0-.534.534l.192 13.614a.534.534 0 0 0 .534.534h6.132a.534.534 0 0 0 .534-.534l.048-1.777a.533.533 0 0 0-.17-.411.535.535 0 0 0-.401-.133v.005Zm9.917-8.005c-.134-1.911-.795-4.446-4.953-4.446a16.544 16.544 0 0 0-3.111.347.534.534 0 0 0-.438.533l.192 13.343a.534.534 0 0 0 .502.533l1.91.15a.533.533 0 0 0 .412-.144.532.532 0 0 0 .176-.4v-4.27l.97-.053 1.068 4.6a.534.534 0 0 0 .534.443h.043l1.91-.15a.534.534 0 0 0 .497-.635l-1.356-5.118c.955-.752 1.836-2.065 1.644-4.718v-.016Zm-3.448 1.878a2.946 2.946 0 0 1-1.868.731v-3.912c.175-.038.355-.058.534-.058.731 0 1.601.325 1.74 1.889a1.687 1.687 0 0 1-.406 1.366v-.016Zm10.727 2.039a10.871 10.871 0 0 0 2.578-7.675.535.535 0 0 0-.582-.533l-2.268.15a.534.534 0 0 0-.534.58c.08 1.196-.71 3.737-1.846 5.338l.165-5.193a.532.532 0 0 0-.16-.395.534.534 0 0 0-.395-.16l-2.924.043a.534.534 0 0 0-.499.345.534.534 0 0 0-.035.21l.32 13.844a.533.533 0 0 0 .192.4.534.534 0 0 0 .427.128l2.28-.304a.533.533 0 0 0 .474-.534l.038-4.04c.464.277 1.82 2.241 2.049 4.184a.533.533 0 0 0 .534.48h2.433a.534.534 0 0 0 .352-.165.533.533 0 0 0 .155-.395c-.01-.518-.827-4.755-2.754-6.308Zm6.8-8.475-2.6.336a.534.534 0 0 0-.475.534v13.507a.533.533 0 0 0 .177.4.535.535 0 0 0 .395.145l2.828-.208a.534.534 0 0 0 .507-.534l-.203-13.63a.534.534 0 0 0-.624-.534l-.005-.016Zm5.529.395c-.79.053-3.373.533-3.587 4.323 0 .485-.053.944-.08 1.382-.155 2.588-.267 4.461.064 6.084.203.971 1.009 3.202 4.216 3.202.198 0 .406 0 .614-.027 1.34-.112 2.332-.533 2.946-1.275.88-1.067.763-2.386.7-3.106v-.144a.531.531 0 0 0-.567-.502l-2.022.09a.532.532 0 0 0-.4.204.571.571 0 0 0-.118.432 2.349 2.349 0 0 1-.261 1.564.77.77 0 0 1-.636.261h-.026a.865.865 0 0 1-.683-.272c-.294-.31-.625-1.068-.534-2.925 0-.432.043-.934.064-1.467.053-1.388.117-2.968.245-3.955v-.016c.097-.752.24-1.067.87-1.1a1.068 1.068 0 0 1 .929.273c.159.246.216.545.16.832a.532.532 0 0 0 .112.449.534.534 0 0 0 .416.202l2.44.032a.533.533 0 0 0 .533-.533 3.981 3.981 0 0 0-1.067-2.711c-.945-.982-2.407-1.425-4.328-1.297Zm16.208 13.812c-.038-.16-1.068-4.27-3.229-6.245 1.067-.987 3.202-2.94 2.471-7.38a.534.534 0 0 0-.598-.454l-2.818.315a.534.534 0 0 0-.373.213.532.532 0 0 0-.102.417c0 .042.582 3.25-1.6 5.176l.053-5.47a.535.535 0 0 0-.182-.41.534.534 0 0 0-.427-.134l-2.818.315a.534.534 0 0 0-.485.533l.33 13.695a.533.533 0 0 0 .187.395c.104.092.24.14.38.133h.042l2.38-.267a.534.534 0 0 0 .486-.534l.197-4.269a9.378 9.378 0 0 1 2.215 4.44.533.533 0 0 0 .603.475l2.813-.315a.532.532 0 0 0 .47-.417.54.54 0 0 0 .005-.212ZM129.608 16.422l.736-5.14-3.079-6.447-2.092.715-2.727-2.924L117.642 0l-1.067 3.896-.747-2.044-3.704 3.618-2.076 3.603-.091 3.736-1.457-.694.993 6.03 2.257 3.87 5.337 1.825 4.361.16 7.514-2.738 2.161-5.337-1.515.497Zm-3.251-2.856-4.269.118-.155 4.803-.229 2.84-3.736-.038v-2.722l-.304-4.755-4.451.192-.155-4.6 6.559-.038 6.789-.192.117.614-.166 3.778Z"/></svg>
